.icons/oomox-modus-operandi/48/mimetypes/text-x-haxe.svg

<?xml version="1.0" encoding="UTF-8" standalone="no"?>
<svg
   xmlns:dc="http://purl.org/dc/elements/1.1/"
   xmlns:cc="http://creativecommons.org/ns#"
   xmlns:rdf="http://www.w3.org/1999/02/22-rdf-syntax-ns#"
   xmlns:svg="http://www.w3.org/2000/svg"
   xmlns="http://www.w3.org/2000/svg"
   xmlns:sodipodi="http://sodipodi.sourceforge.net/DTD/sodipodi-0.dtd"
   xmlns:inkscape="http://www.inkscape.org/namespaces/inkscape"
   width="48"
   viewBox="0 0 48 48"
   height="48"
   id="svg2"
   version="1.1"
   inkscape:version="0.91 r13725"
   sodipodi:docname="text-x-haxe.svg">
  <metadata
     id="metadata16">
    <rdf:RDF>
      <cc:Work
         rdf:about="">
        <dc:format>image/svg+xml</dc:format>
        <dc:type
           rdf:resource="http://purl.org/dc/dcmitype/StillImage" />
      </cc:Work>
    </rdf:RDF>
  </metadata>
  <defs
     id="defs14" />
  <sodipodi:namedview
     pagecolor="#ffffff"
     bordercolor="#666666"
     borderopacity="1"
     objecttolerance="10"
     gridtolerance="10"
     guidetolerance="10"
     inkscape:pageopacity="0"
     inkscape:pageshadow="2"
     inkscape:window-width="1440"
     inkscape:window-height="880"
     id="namedview12"
     showgrid="false"
     inkscape:zoom="4.9166667"
     inkscape:cx="-3.4576271"
     inkscape:cy="24"
     inkscape:window-x="0"
     inkscape:window-y="20"
     inkscape:window-maximized="1"
     inkscape:current-layer="svg2" />
  <path
     style="fill:#f68712;fill-opacity:1"
     d="M 8,1 C 6.9714285,1 6,1.9714285 6,3 l 0,42 c 0,0.971429 1.0285714,2 2,2 l 32,0 c 0.971429,0 2,-1.028571 2,-2 L 42,14 29,1 z"
     id="path4" />
  <path
     style="fill-opacity:.196"
     d="M 29,12 29.0625,12.0625 29.21875,12 29,12 z m 2,2 11,11 0,-11 -11,0 z"
     id="path6" />
  <path
     style="fill:#fff;fill-opacity:.392"
     d="m 29,1 13,13 -11,0 c -0.971429,0 -2,-1.028571 -2,-2 L 29,1 z"
     id="path8" />
  <g
     transform="matrix(0.01438515,0,0,-0.01438515,15,42.530297)"
     id="g3075">
    <path
       id="path38"
       style="fill:#ffffff;fill-opacity:1;fill-rule:nonzero;stroke:none"
       d="m 1094.86,1079.59 156.43,-625.629 0,312.812 -156.43,312.817 m 0,0 156.43,625.64 0,-312.81 -156.43,-312.83 m -938.454,0 L 0,1705.23 0,1392.42 156.406,1079.59 m 0,0 L 0,453.961 0,766.773 156.406,1079.59 M 625.645,610.371 0,453.961 l 312.812,0 312.833,156.41 m 0,0 625.645,-156.41 -312.833,0 -312.812,156.41 m 0,938.449 625.645,156.41 -312.833,0 -312.812,-156.41 m 0,0 L 0,1705.23 l 312.812,0 312.833,-156.41 M 0,453.961 156.406,1079.59 625.645,610.371 0,453.961 m 1251.29,0 -625.645,156.41 469.215,469.219 156.43,-625.629 m 0,1251.269 -156.43,-625.64 -469.215,469.23 625.645,156.41 M 0,1705.23 625.645,1548.82 156.406,1079.59 0,1705.23 M 625.645,1548.82 156.406,1079.59 625.645,610.371 1094.86,1079.59 625.645,1548.82"
       inkscape:connector-curvature="0" />
  </g>
</svg>

<svg width="48" height="48" version="1.1" viewBox="0 0 48 48" xmlns="http://www.w3.org/2000/svg">
 <path d="m8 1c-1.0286 0-2 0.97143-2 2v42c0 0.97143 1.0286 2 2 2h32c0.97143 0 2-1.0286 2-2v-31l-13-13z" style="fill:#f68712"/>
 <path d="m29 12 0.0625 0.0625 0.15625-0.0625h-0.21875zm2 2 11 11v-11h-11z" style="fill-opacity:.196"/>
 <path d="m29 1 13 13h-11c-0.97143 0-2-1.0286-2-2v-11z" style="fill-opacity:.392;fill:#fff"/>
 <g transform="matrix(.014385 0 0 -.014385 15 42.53)">
  <path d="m1094.9 1079.6 156.43-625.63v312.81l-156.43 312.82 156.43 625.64v-312.81l-156.43-312.83m-938.45 0-156.41 625.64v-312.81l156.41-312.83-156.41-625.63v312.81l156.41 312.82m469.24-469.22-625.64-156.41h312.81l312.83 156.41 625.64-156.41h-312.83l-312.81 156.41m0 938.45 625.64 156.41h-312.83l-312.81-156.41-625.64 156.41h312.81l312.83-156.41m-625.64-1094.9 156.41 625.63 469.24-469.22-625.64-156.41m1251.3 0-625.64 156.41 469.22 469.22 156.43-625.63m0 1251.3-156.43-625.64-469.22 469.23 625.64 156.41m-1251.3 0 625.64-156.41-469.24-469.23-156.41 625.64m625.64-156.41-469.24-469.23 469.24-469.22 469.22 469.22-469.22 469.23" style="fill:#fff"/>
 </g>
</svg>
